X: 4
T: Merry Andrew
M: 4/4
L: 1/8
R: hornpipe
F: http://www.thesession.org/tunes/display/9256
K: Gmaj
|: D2 |\
G2 G2 dBAG | c2 c2 c2 BA | G2 G2 cBAG | d2 d2 d4 |
G2 G2 cBAG | c2 d2 e2 d2 | efge fgaf | g2 g2 g2 :|
|: z2 |\
g2 ga gfed | c2 c2 c4 | a2 ab agfe | d2 d2 d4 |
g2 ga gfed | c2 d2 e2 d2 | efge fgaf | g2 g2 g2 :|

%%sep 2 1 500

